svg/Outline/close-circle.svg

<svg viewBox="0 0 24 24" xmlns="http://www.w3.org/2000/svg" width="24" height="24"><path d="M8.28 8.28a1 1 0 0 1 1.41 0l2.32 2.31 2.3-2.3a1 1 0 0 1 1.42 1.41L13.42 12l2.3 2.32.08.07a1 1 0 0 1-1.41 1.4l-.08-.06-2.3-2.3-2.32 2.3-.07.07a1 1 0 0 1-1.4-1.4l.06-.08 2.31-2.31L8.28 9.7a1 1 0 0 1 0-1.42"/><path fill-rule="evenodd" d="M12 1A11 11 0 1 1 12 23A11 11 0 0 1 12 1M12 2.5A9.5 9.5 0 1 0 12 21.5A9.5 9.5 0 0 0 12 2.5" clip-rule="evenodd"/></svg>

<svg viewBox="0 0 24 24" xmlns="http://www.w3.org/2000/svg" width="24" height="24"><path d="M8.28 8.28A1 1 0 0 1 9.69 8.28L12.01 10.59L14.31 8.29A1 1 0 0 1 15.73 9.7L13.42 12L15.8 14.39A1 1 0 0 1 14.39 15.79L12.01 13.43L9.62 15.8A1 1 0 0 1 8.22 14.4L10.59 12.01L8.28 9.7A1 1 0 0 1 8.28 8.28"/><path fill-rule="evenodd" d="M12 1A11 11 0 1 1 12 23A11 11 0 0 1 12 1M12 2.5A9.5 9.5 0 1 0 12 21.5A9.5 9.5 0 0 0 12 2.5" clip-rule="evenodd"/></svg>
